icons/contacts-book-2-line.svg

<svg viewBox="0 0 24 24" fill="currentColor" xmlns="http://www.w3.org/2000/svg"><path d="M20 22H6C4.34315 22 3 20.6569 3 19V5C3 3.34315 4.34315 2 6 2H20C20.5523 2 21 2.44772 21 3V21C21 21.5523 20.5523 22 20 22ZM19 20V18H6C5.44772 18 5 18.4477 5 19C5 19.5523 5.44772 20 6 20H19ZM5 16.1707C5.31278 16.0602 5.64936 16 6 16H19V4H6C5.44772 4 5 4.44772 5 5V16.1707ZM12 10C10.8954 10 10 9.10457 10 8C10 6.89543 10.8954 6 12 6C13.1046 6 14 6.89543 14 8C14 9.10457 13.1046 10 12 10ZM9 14C9 12.3431 10.3431 11 12 11C13.6569 11 15 12.3431 15 14H9Z"/></svg>

<svg xmlns="http://www.w3.org/2000/svg" viewBox="0 0 24 24">
    <g>
        <path fill="none" d="M0 0h24v24H0z"/>
        <path d="M20 22H6a3 3 0 0 1-3-3V5a3 3 0 0 1 3-3h14a1 1 0 0 1 1 1v18a1 1 0 0 1-1 1zm-1-2v-2H6a1 1 0 0 0 0 2h13zM5 16.17c.313-.11.65-.17 1-.17h13V4H6a1 1 0 0 0-1 1v11.17zM12 10a2 2 0 1 1 0-4 2 2 0 0 1 0 4zm-3 4a3 3 0 0 1 6 0H9z"/>
    </g>
</svg>
